src/sym-tio.svg

<svg width="33" height="32" viewBox="0 0 33 32" fill="none" xmlns="http://www.w3.org/2000/svg">
<g clip-path="url(#clip0_3393:12196)">
<path fill-rule="evenodd" clip-rule="evenodd" d="M16.4338 31.84C25.1819 31.84 32.2738 24.7482 32.2738 16C32.2738 7.25184 25.1819 0.160034 16.4338 0.160034C7.68556 0.160034 0.59375 7.25184 0.59375 16C0.59375 24.7482 7.68556 31.84 16.4338 31.84ZM6.86471 9.14339L11.5281 4.47998H13.7444C13.1441 4.82628 11.1587 7.2965 10.6508 9.14339H6.86471ZM16.0068 4.47998V9.14339H11.5281C11.8436 8.18147 12.9687 5.90209 14.9449 4.47998H16.0068ZM16.9072 9.14339H21.4321C20.3794 6.63162 18.6694 4.98788 17.9461 4.47998H16.9072V9.14339ZM25.9801 9.14339H22.3094C21.7322 7.75822 20.6887 5.84669 19.1927 4.47998H21.2705L25.9801 9.14339ZM10.5355 22.8566H6.8648L11.5744 27.52H13.6521C12.1561 26.1533 11.1127 24.2417 10.5355 22.8566ZM11.4128 22.8566H15.9377L15.9377 27.52L14.8988 27.52C14.1754 27.0121 12.4655 25.3683 11.4128 22.8566ZM16.838 22.8566V27.52H17.9C19.8762 26.0979 21.0012 23.8185 21.3167 22.8566L16.838 22.8566ZM21.3167 27.52L25.9801 22.8566H22.194C21.6861 24.7035 19.7007 27.1737 19.1005 27.52H21.3167ZM24.2652 20.012C23.9852 20.068 23.7012 20.096 23.4132 20.096C23.1252 20.096 22.8412 20.068 22.5612 20.012C22.2812 19.956 22.0172 19.856 21.7692 19.712C21.5212 19.56 21.3092 19.372 21.1332 19.148C20.9572 18.916 20.8332 18.66 20.7612 18.38C20.6972 18.1 20.6652 17.816 20.6652 17.528V13.652C20.6652 13.364 20.6972 13.08 20.7612 12.8C20.8332 12.52 20.9572 12.268 21.1332 12.044C21.3092 11.812 21.5212 11.624 21.7692 11.48C22.0172 11.328 22.2812 11.224 22.5612 11.168C22.8412 11.112 23.1252 11.084 23.4132 11.084C23.7012 11.084 23.9852 11.112 24.2652 11.168C24.5452 11.224 24.8092 11.328 25.0572 11.48C25.3052 11.624 25.5172 11.812 25.6932 12.044C25.8692 12.268 25.9892 12.52 26.0532 12.8C26.1252 13.08 26.1612 13.364 26.1612 13.652V17.528C26.1612 17.816 26.1252 18.1 26.0532 18.38C25.9892 18.66 25.8692 18.916 25.6932 19.148C25.5172 19.372 25.3052 19.56 25.0572 19.712C24.8092 19.856 24.5452 19.956 24.2652 20.012ZM22.9092 18.692C23.0772 18.74 23.2452 18.764 23.4132 18.764C23.5812 18.764 23.7452 18.74 23.9052 18.692C24.0732 18.644 24.2172 18.56 24.3372 18.44C24.4652 18.32 24.5532 18.18 24.6012 18.02C24.6572 17.86 24.6852 17.696 24.6852 17.528V13.652C24.6852 13.484 24.6572 13.32 24.6012 13.16C24.5532 12.992 24.4652 12.852 24.3372 12.74C24.2172 12.62 24.0732 12.536 23.9052 12.488C23.7452 12.44 23.5812 12.416 23.4132 12.416C23.2452 12.416 23.0772 12.44 22.9092 12.488C22.7492 12.536 22.6052 12.62 22.4772 12.74C22.3572 12.852 22.2692 12.992 22.2132 13.16C22.1652 13.32 22.1412 13.484 22.1412 13.652V17.528C22.1412 17.696 22.1652 17.86 22.2132 18.02C22.2692 18.18 22.3572 18.32 22.4772 18.44C22.6052 18.56 22.7492 18.644 22.9092 18.692ZM8.84106 20H10.3291V12.512H12.3811V11.18H6.78906V12.512H8.84106V20ZM14.0871 20H18.9111V18.668H17.2431V12.512H18.9111V11.18H14.0871V12.512H15.7551V18.668H14.0871V20Z" fill="black"/>
</g>
<defs>
<clipPath id="clip0_3393:12196">
<rect width="32" height="32" fill="white" transform="translate(0.441406)"/>
</clipPath>
</defs>
</svg>

<svg xmlns="http://www.w3.org/2000/svg" viewBox="0 0 33 32">
	<path
		d="M16.4 31.8c8.7 0 15.8-7.1 15.8-15.8C32.2 7.3 25.1.2 16.4.2 7.7.2.6 7.3.6 16c0 8.7 7.1 15.8 15.8 15.8zM6.9 9.1l4.7-4.7h2.2c-.6.3-2.6 2.8-3.1 4.7H6.9zM16 4.5v4.7h-4.5c.3-1 1.4-3.2 3.4-4.7H16zm.9 4.6h4.5c-1.1-2.5-2.8-4.2-3.5-4.7h-1v4.7zm9.1 0h-3.7c-.6-1.4-1.6-3.3-3.1-4.7h2.1L26 9.1zM10.5 22.9H6.9l4.7 4.7h2.1c-1.5-1.4-2.6-3.4-3.2-4.7zm.9 0h4.5v4.7h-1c-.7-.6-2.4-2.2-3.5-4.7zm5.4 0v4.7h1.1c2-1.4 3.1-3.7 3.4-4.7h-4.5zm4.5 4.6l4.7-4.7h-3.8c-.5 1.8-2.5 4.3-3.1 4.7h2.2zm3-7.5c-.3.1-.6.1-.9.1s-.6 0-.9-.1c-.3-.1-.5-.2-.8-.3-.2-.2-.5-.3-.6-.6-.2-.2-.3-.5-.4-.8-.1-.3-.1-.6-.1-.9v-3.9c0-.3 0-.6.1-.9.1-.3.2-.5.4-.8l.6-.6c.2-.2.5-.3.8-.3.3-.1.6-.1.9-.1s.6 0 .9.1c.3.1.5.2.8.3.2.1.5.3.6.6.2.2.3.5.4.8.1.3.1.6.1.9v3.9c0 .3 0 .6-.1.9-.1.3-.2.5-.4.8l-.6.6c-.3.2-.6.3-.8.3zm-1.4-1.3c.2 0 .3.1.5.1s.3 0 .5-.1c.2 0 .3-.1.4-.3.1-.1.2-.3.3-.4.1-.2.1-.3.1-.5v-3.9c0-.2 0-.3-.1-.5 0-.2-.1-.3-.3-.4-.1-.1-.3-.2-.4-.3-.2 0-.3-.1-.5-.1s-.3 0-.5.1c-.2 0-.3.1-.4.3-.1.1-.2.3-.3.4 0 .2-.1.3-.1.5v3.9c0 .2 0 .3.1.5s.1.3.3.4c.1.2.2.2.4.3zM8.8 20h1.5v-7.5h2.1v-1.3H6.8v1.3h2.1V20zm5.3 0h4.8v-1.3h-1.7v-6.2h1.7v-1.3h-4.8v1.3h1.7v6.2h-1.7V20z"
		fill-rule="evenodd" clip-rule="evenodd" />
</svg>
